src/22/actions/format-text-capitalize.svg

<svg xmlns="http://www.w3.org/2000/svg" viewBox="0 0 22 22">
  <defs id="defs3051">
    <style type="text/css" id="current-color-scheme">
      .ColorScheme-Text {
        color:#5d656b;
      }
      .ColorScheme-Highlight {
        color:#3daee9;
      }
      </style>
  </defs>
  <g transform="translate(-421.71429,-525.79074)" >
 <path 
    style="fill:currentColor;fill-opacity:1;stroke:none" 
    d="M 5.0351562 7 L 1 19 L 1.9746094 19 L 3.4199219 15 L 8.453125 15 L 9.8945312 19 L 11 19 L 6.9101562 7 L 5.0351562 7 z M 12 7 L 12 15 L 12 19 L 13 19 L 13 17.638672 A 4 4 0 0 0 16 19 A 4 4 0 0 0 20 15 A 4 4 0 0 0 16 11 A 4 4 0 0 0 13 12.361328 L 13 7 L 12 7 z M 5.9433594 8.0292969 L 8.0917969 14 L 3.7832031 14 L 5.9433594 8.0292969 z M 16 12 A 3 3 0 0 1 19 15 A 3 3 0 0 1 16 18 A 3 3 0 0 1 13 15 A 3 3 0 0 1 16 12 z "
    transform="translate(421.71429,525.79074)"
    class="ColorScheme-Text"
    />  
 <path 
    style="fill:currentColor;fill-opacity:1;stroke:none" 
    d="m 424.71429,531.79074 3,-4 3,4 z"
    class="ColorScheme-Highlight"
    />  
 </g>
</svg>

<svg xmlns="http://www.w3.org/2000/svg" viewBox="0 0 22 22"><g fill="currentColor"><path d="M5.035 7L1 19h.975l1.445-4h5.033l1.442 4H11L6.91 7H5.035zM12 7v12h1v-1.361A4 4 0 0 0 16 19a4 4 0 0 0 4-4 4 4 0 0 0-4-4 4 4 0 0 0-3 1.361V7h-1zM5.943 8.03L8.092 14H3.783l2.16-5.97zM16 12a3 3 0 0 1 3 3 3 3 0 0 1-3 3 3 3 0 0 1-3-3 3 3 0 0 1 3-3z" color="#5d656b"/><path d="M3 6l3-4 3 4z" color="#3daee9"/></g></svg>
